icons/2x-playback-speed-16.svg

<svg id="icons" xmlns="http://www.w3.org/2000/svg" viewBox="0 0 16 16"><path d="M10,13H2.31738c.26074-1.6333,2.30371-2.46436,3.92969-3.33887C8.0918,8.668,10,7.64111,10,5.356,10,3.44287,7.99208,2,6.18457,2A4.03036,4.03036,0,0,0,2.96289,3.18311,3.64785,3.64785,0,0,0,2.009,6h.982a2.59664,2.59664,0,0,1,.68966-2.12109A3.795,3.795,0,0,1,6.18457,2.964,2.7525,2.7525,0,0,1,9,5.356C9,7.044,7.50488,7.84863,5.77344,8.78027,3.90039,9.78809,1.27832,10.93018,1.27832,13.5V14H10Zm6-7L14.14072,8.498,16,11H14.72443L13.502,9.357,12.27948,11H11.002l1.86124-2.502L11.00489,6h1.27759L13.502,7.639,14.72143,6Z"/><path fill="none" d="M0 0h16v16H0z"/></svg>

<svg xmlns="http://www.w3.org/2000/svg" viewBox="0 0 16 16"><path d="M10 13H2.317c.261-1.633 2.304-2.464 3.93-3.339C8.092 8.668 10 7.641 10 5.356 10 3.443 7.992 2 6.185 2a4.03 4.03 0 0 0-3.222 1.183A3.648 3.648 0 0 0 2.009 6h.982a2.597 2.597 0 0 1 .69-2.121 3.795 3.795 0 0 1 2.504-.915A2.752 2.752 0 0 1 9 5.356C9 7.044 7.505 7.849 5.773 8.78 3.9 9.788 1.278 10.93 1.278 13.5v.5H10zm6-7l-1.86 2.498L16 11h-1.276l-1.222-1.643L12.279 11h-1.277l1.861-2.502L11.005 6h1.277l1.22 1.639L14.722 6z"/><path fill="none" d="M0 0h16v16H0z"/></svg>
